resources/svg/radio-fill.svg

<svg fill="currentColor" viewBox="0 0 24 24" xmlns="http://www.w3.org/2000/svg"><path d="M17 10H20V6H4V10H15V8H17V10ZM6 3V1H8V3H21.0082C21.556 3 22 3.44495 22 3.9934V20.0066C22 20.5552 21.5447 21 21.0082 21H2.9918C2.44405 21 2 20.5551 2 20.0066V3.9934C2 3.44476 2.45531 3 2.9918 3H6ZM7 19C8.65685 19 10 17.6569 10 16C10 14.3431 8.65685 13 7 13C5.34315 13 4 14.3431 4 16C4 17.6569 5.34315 19 7 19Z"/></svg>

<svg xmlns="http://www.w3.org/2000/svg" viewBox="0 0 24 24" fill="currentColor">
    <g>
        <path fill="none" d="M0 0h24v24H0z"/>
        <path d="M17 10h3V6H4v4h11V8h2v2zM6 3V1h2v2h13.008c.548 0 .992.445.992.993v16.014a1 1 0 0 1-.992.993H2.992A.993.993 0 0 1 2 20.007V3.993A1 1 0 0 1 2.992 3H6zm1 16a3 3 0 1 0 0-6 3 3 0 0 0 0 6z"/>
    </g>
</svg>
